SF_Symbols/cloud.drizzle.fill.svg

<?xml version="1.0" encoding="UTF-8"?>
<svg xmlns="http://www.w3.org/2000/svg" xmlns:xlink="http://www.w3.org/1999/xlink" width="24" height="24" viewBox="0 0 24 24" version="1.1">
<g id="surface1">
<path style=" stroke:none;fill-rule:nonzero;fill:rgb(100%,100%,100%);fill-opacity:1;" d="M 5.238281 15.472656 L 17.488281 15.472656 C 18.296875 15.472656 19.042969 15.332031 19.726562 15.050781 C 20.417969 14.765625 21.015625 14.371094 21.523438 13.863281 C 22.035156 13.359375 22.429688 12.773438 22.707031 12.109375 C 22.988281 11.445312 23.132812 10.734375 23.132812 9.976562 C 23.132812 9.1875 22.980469 8.464844 22.675781 7.804688 C 22.382812 7.140625 21.964844 6.566406 21.425781 6.078125 C 20.890625 5.585938 20.265625 5.203125 19.550781 4.933594 C 18.832031 4.664062 18.054688 4.53125 17.21875 4.53125 C 16.8125 3.71875 16.289062 3.015625 15.652344 2.417969 C 15.019531 1.8125 14.300781 1.34375 13.488281 1.015625 C 12.679688 0.6875 11.800781 0.523438 10.84375 0.523438 C 9.917969 0.523438 9.042969 0.695312 8.21875 1.035156 C 7.40625 1.371094 6.675781 1.839844 6.03125 2.4375 C 5.386719 3.035156 4.863281 3.734375 4.460938 4.53125 C 4.066406 5.324219 3.828125 6.179688 3.75 7.09375 C 3.152344 7.265625 2.613281 7.550781 2.140625 7.945312 C 1.667969 8.332031 1.292969 8.804688 1.015625 9.363281 C 0.738281 9.925781 0.601562 10.550781 0.601562 11.25 C 0.601562 12.027344 0.78125 12.738281 1.144531 13.382812 C 1.511719 14.019531 2.042969 14.53125 2.734375 14.910156 C 3.425781 15.285156 4.261719 15.472656 5.238281 15.472656 Z M 5.496094 20.09375 L 6.78125 17.863281 C 6.871094 17.710938 6.894531 17.558594 6.847656 17.40625 C 6.808594 17.25 6.71875 17.128906 6.574219 17.042969 C 6.421875 16.957031 6.269531 16.9375 6.117188 16.984375 C 5.96875 17.023438 5.84375 17.117188 5.753906 17.269531 L 4.460938 19.519531 C 4.375 19.65625 4.351562 19.800781 4.390625 19.953125 C 4.429688 20.113281 4.53125 20.234375 4.6875 20.320312 C 4.832031 20.398438 4.984375 20.414062 5.140625 20.367188 C 5.300781 20.328125 5.417969 20.238281 5.496094 20.09375 Z M 8.585938 22.863281 L 9.867188 20.644531 C 9.960938 20.492188 9.984375 20.339844 9.9375 20.179688 C 9.898438 20.03125 9.804688 19.910156 9.660156 19.824219 C 9.511719 19.738281 9.359375 19.71875 9.207031 19.757812 C 9.054688 19.800781 8.933594 19.902344 8.84375 20.050781 L 7.550781 22.292969 C 7.464844 22.4375 7.441406 22.585938 7.480469 22.738281 C 7.519531 22.886719 7.613281 23.007812 7.765625 23.09375 C 7.917969 23.175781 8.070312 23.199219 8.21875 23.152344 C 8.378906 23.113281 8.5 23.015625 8.585938 22.863281 Z M 13.351562 20.082031 L 14.636719 17.851562 C 14.726562 17.699219 14.75 17.550781 14.703125 17.398438 C 14.664062 17.238281 14.570312 17.117188 14.417969 17.03125 C 14.273438 16.949219 14.121094 16.925781 13.964844 16.972656 C 13.8125 17.011719 13.695312 17.109375 13.609375 17.261719 L 12.316406 19.511719 C 12.230469 19.648438 12.207031 19.792969 12.246094 19.945312 C 12.285156 20.101562 12.382812 20.222656 12.53125 20.308594 C 12.675781 20.386719 12.828125 20.40625 12.988281 20.359375 C 13.144531 20.320312 13.265625 20.226562 13.351562 20.082031 Z M 16.441406 22.855469 L 17.722656 20.636719 C 17.808594 20.484375 17.832031 20.328125 17.792969 20.171875 C 17.753906 20.019531 17.65625 19.902344 17.507812 19.816406 C 17.355469 19.730469 17.203125 19.707031 17.050781 19.746094 C 16.902344 19.792969 16.78125 19.890625 16.699219 20.042969 L 15.394531 22.28125 C 15.316406 22.425781 15.296875 22.574219 15.335938 22.726562 C 15.375 22.878906 15.46875 22.996094 15.621094 23.082031 C 15.765625 23.167969 15.917969 23.1875 16.074219 23.140625 C 16.234375 23.101562 16.355469 23.007812 16.441406 22.855469 Z M 16.441406 22.855469 "/>
</g>
</svg>

<svg xmlns="http://www.w3.org/2000/svg" width="24" height="24"><path style="stroke:none;fill-rule:nonzero;fill:#fff;fill-opacity:1" d="M5.238 15.473h12.25c.809 0 1.555-.141 2.239-.422a5.48 5.48 0 0 0 2.98-2.942c.285-.675.43-1.398.426-2.132 0-.79-.153-1.512-.457-2.172a5.065 5.065 0 0 0-1.25-1.727 5.756 5.756 0 0 0-1.875-1.144 6.585 6.585 0 0 0-2.332-.403 7.367 7.367 0 0 0-1.567-2.113 6.77 6.77 0 0 0-2.164-1.402C12.68.687 11.801.523 10.844.523c-.926 0-1.801.172-2.625.512A7.34 7.34 0 0 0 4.46 4.531c-.399.801-.64 1.672-.711 2.563a4.35 4.35 0 0 0-1.61.851c-.472.387-.847.86-1.124 1.418-.278.563-.414 1.188-.414 1.887 0 .777.18 1.488.543 2.133.367.637.898 1.148 1.59 1.527.69.375 1.527.563 2.503.563Zm.258 4.62 1.285-2.23a.54.54 0 0 0 .067-.457.571.571 0 0 0-.274-.363.554.554 0 0 0-.457-.059.592.592 0 0 0-.363.286L4.46 19.52a.532.532 0 0 0-.07.433c.039.16.14.281.296.367.137.078.301.094.454.047a.535.535 0 0 0 .355-.273Zm3.09 2.77 1.281-2.218a.56.56 0 0 0 .07-.465.59.59 0 0 0-.277-.356.596.596 0 0 0-.453-.066.618.618 0 0 0-.363.293L7.55 22.293a.56.56 0 0 0 .215.8c.136.083.3.102.453.06a.57.57 0 0 0 .367-.29Zm4.766-2.781 1.285-2.23c.09-.153.113-.301.066-.454a.555.555 0 0 0-.285-.367.56.56 0 0 0-.453-.058.573.573 0 0 0-.356.289l-1.293 2.25a.532.532 0 0 0-.07.433c.04.157.137.278.285.364.14.078.305.097.457.05a.577.577 0 0 0 .364-.277Zm3.09 2.773 1.28-2.218a.624.624 0 0 0 .071-.465.577.577 0 0 0-.285-.356.604.604 0 0 0-.457-.07.601.601 0 0 0-.352.297l-1.304 2.238a.593.593 0 0 0-.06.446c.04.152.134.27.286.355.137.086.3.105.453.059a.553.553 0 0 0 .367-.286Zm0 0"/></svg>
